X: 1
T: Cloch Na Ceithre Mhile
R: reel
M: 4/4
L: 1/8
K: Ador
A,2EA, ~A,2EA,|~A,2GE DB,A,B,|G,2(3B,A,G, DG,B,A,|G,B,~B,2 G,B,DB,|
A,2EA, ~A,2AB|B/B/A BG AGAB|B/B/A BG AGEA|GEDB, G,A,A,G,:|
|:(3A,DA BA eABA|A,E~E2 D2B,G,|{B,}A,G,DG, EG,D2|(3ded (3BdB (3GAG DA,|
A,EAA AB(3cde|AG ED~E2AB|B/B/A BG AGEA|GEDB, G,A,{B,}A,G,:|


Tune 989	Setting 14192

